spyder/images/code-analysis.svg

<svg width="300" height="200" viewBox="0 0 300 200" fill="none" xmlns="http://www.w3.org/2000/svg">
<path d="M132 39.5C132 40.8807 133.119 42 134.5 42C135.881 42 137 40.8807 137 39.5C137 38.1193 135.881 37 134.5 37C133.119 37 132 38.1193 132 39.5Z" fill="#336E9E"/>
<path d="M106.5 68C111.747 68 116 63.7467 116 58.5C116 53.2533 111.747 49 106.5 49C101.253 49 97 53.2533 97 58.5C97 63.7467 101.253 68 106.5 68Z" fill="#336E9E"/>
<path fill-rule="evenodd" clip-rule="evenodd" d="M108.003 39.8952C107.831 38.0714 105.169 38.0714 104.997 39.8952C104.849 41.4528 102.721 41.7858 102.106 40.3476C101.385 38.6642 98.859 39.5115 99.2505 41.3003C99.5855 42.8307 97.6628 43.8128 96.6335 42.6318C95.4281 41.2486 93.2911 42.8511 94.2129 44.4374C95.0018 45.7951 93.4765 47.3309 92.1289 46.5249C90.5487 45.5799 89.0061 47.7712 90.3768 49.0006C91.5485 50.0515 90.573 51.9878 89.0375 51.6419C87.2344 51.2358 86.4273 53.7985 88.1187 54.5439C89.5612 55.1796 89.2305 57.3227 87.6615 57.4754C85.8171 57.655 85.8171 60.345 87.6615 60.5245C89.2305 60.6772 89.5612 62.8203 88.1187 63.456C86.4273 64.2014 87.2344 66.7642 89.0375 66.358C90.573 66.0121 91.5485 67.9484 90.3768 68.9994C89.0061 70.2288 90.5487 72.42 92.1289 71.475C93.4765 70.6691 95.0018 72.2049 94.2129 73.5625C93.2911 75.1489 95.4281 76.7513 96.6335 75.3682C97.6628 74.1871 99.5855 75.1692 99.2505 76.6996C98.859 78.4884 101.385 79.3357 102.106 77.6524C102.721 76.2141 104.849 76.5472 104.997 78.1048C105.169 79.9286 107.831 79.9286 108.003 78.1048C108.151 76.5472 110.279 76.2141 110.894 77.6524C111.615 79.3357 114.141 78.4884 113.749 76.6996C113.414 75.1692 115.337 74.1871 116.366 75.3682C117.572 76.7513 119.709 75.1489 118.787 73.5625C117.998 72.2049 119.523 70.6691 120.871 71.475C122.451 72.42 123.994 70.2288 122.623 68.9994C121.451 67.9484 122.427 66.0121 123.962 66.358C125.766 66.7642 126.573 64.2014 124.881 63.456C123.439 62.8203 123.769 60.6772 125.338 60.5245C127.183 60.345 127.183 57.655 125.338 57.4754C123.769 57.3227 123.439 55.1796 124.881 54.5439C126.573 53.7985 125.766 51.2358 123.962 51.6419C122.427 51.9878 121.451 50.0515 122.623 49.0006C123.994 47.7712 122.451 45.5799 120.871 46.5249C119.523 47.3309 117.998 45.7951 118.787 44.4374C119.709 42.8511 117.572 41.2486 116.366 42.6318C115.337 43.8128 113.414 42.8307 113.749 41.3003C114.141 39.5115 111.615 38.6642 110.894 40.3476C110.279 41.7858 108.151 41.4528 108.003 39.8952ZM106.5 71C113.404 71 119 65.4036 119 58.5C119 51.5964 113.404 46 106.5 46C99.5964 46 94 51.5964 94 58.5C94 65.4036 99.5964 71 106.5 71Z" fill="#336E9E"/>
<path d="M129.619 58C129.421 57.0462 128.935 56.1545 128.16 55.5048C128.445 55.0322 128.631 54.5197 128.726 54H182C187.523 54 192 58.4771 192 64V144C192 149.523 187.523 154 182 154H113C107.477 154 103 149.523 103 144V109.489L106.81 105.221L107 105.453V144C107 147.314 109.686 150 113 150H182C185.314 150 188 147.314 188 144V64C188 60.6863 185.314 58 182 58H129.619Z" fill="#336E9E"/>
<path d="M180 94H124.5V90H180C181.105 90 182 90.8954 182 92C182 93.1046 181.105 94 180 94Z" fill="#336E9E"/>
<path d="M124.5 116H152C153.105 116 154 115.105 154 114C154 112.895 153.105 112 152 112H124.5V116Z" fill="#336E9E"/>
<path d="M169 133C170.105 133 171 133.895 171 135C171 136.105 170.105 137 169 137H121C119.895 137 119 136.105 119 135C119 133.895 119.895 133 121 133H169Z" fill="#336E9E"/>
<path d="M96.5455 78.7842C95.855 78.9427 95.153 78.9208 94.5 78.7622V110L107 95.9999L118.5 110V78.7622C117.847 78.9208 117.145 78.9427 116.454 78.7842C115.924 80.0352 114.841 80.9382 113.691 81.323C112.539 81.7083 111.127 81.6353 109.956 80.9468C108.217 82.9811 104.783 82.9811 103.044 80.9468C101.873 81.6353 100.461 81.7083 99.3092 81.323C98.1588 80.9382 97.0759 80.0352 96.5455 78.7842Z" fill="#336E9E"/>
<path d="M124.023 74C124.536 73.6718 124.974 73.2512 125.304 72.7828C125.846 72.0161 126.172 71.0236 126.15 70H160C161.104 70 162 70.8954 162 72C162 73.1046 161.104 74 160 74H124.023Z" fill="#336E9E"/>
<path d="M225.5 109.5C225.5 110.604 224.605 111.5 223.5 111.5H216.5V118.5C216.5 119.604 215.605 120.5 214.5 120.5C213.395 120.5 212.5 119.604 212.5 118.5V111.5H205.5C204.395 111.5 203.5 110.604 203.5 109.5C203.5 108.395 204.395 107.5 205.5 107.5H212.5V100.5C212.5 99.3953 213.395 98.4999 214.5 98.4999C215.605 98.4999 216.5 99.3953 216.5 100.5V107.5H223.5C224.605 107.5 225.5 108.395 225.5 109.5Z" fill="#336E9E"/>
<path d="M90 151C91.1046 151 92 150.104 92 149C92 147.895 91.1046 147 90 147H83V140C83 138.895 82.1046 138 81 138C79.8954 138 79 138.895 79 140V147H72C70.8954 147 70 147.895 70 149C70 150.104 70.8954 151 72 151H79V158C79 159.104 79.8954 160 81 160C82.1046 160 83 159.104 83 158V151H90Z" fill="#336E9E"/>
<path d="M228 96.5C226.619 96.5 225.5 95.3807 225.5 94C225.5 92.6193 226.619 91.5 228 91.5C229.381 91.5 230.5 92.6193 230.5 94C230.5 95.3807 229.381 96.5 228 96.5Z" fill="#336E9E"/>
<path d="M94.5 163C93.1193 163 92 161.881 92 160.5C92 159.119 93.1193 158 94.5 158C95.8807 158 97 159.119 97 160.5C97 161.881 95.8807 163 94.5 163Z" fill="#336E9E"/>
<path d="M216.5 83C216.5 84.3807 217.619 85.5 219 85.5C220.381 85.5 221.5 84.3807 221.5 83C221.5 81.6193 220.381 80.5 219 80.5C217.619 80.5 216.5 81.6193 216.5 83Z" fill="#336E9E"/>
<path d="M80.5 79C79.1193 79 78 77.8807 78 76.5C78 75.1193 79.1193 74 80.5 74C81.8807 74 83 75.1193 83 76.5C83 77.8807 81.8807 79 80.5 79Z" fill="#336E9E"/>
<path d="M72 66.5C72 67.8807 73.1193 69 74.5 69C75.8807 69 77 67.8807 77 66.5C77 65.1193 75.8807 64 74.5 64C73.1193 64 72 65.1193 72 66.5Z" fill="#336E9E"/>
</svg>

<svg xmlns="http://www.w3.org/2000/svg" width="300" height="200" fill="none"><path fill="#336e9e" d="M132 39.5a2.5 2.5 0 1 0 5 0 2.5 2.5 0 0 0-5 0zM106.5 68a9.5 9.5 0 0 0 9.5-9.5 9.5 9.5 0 0 0-9.5-9.5 9.5 9.5 0 0 0-9.5 9.5 9.5 9.5 0 0 0 9.5 9.5z"/><path fill="#336e9e" fill-rule="evenodd" d="M108.003 39.895c-.172-1.824-2.834-1.824-3.006 0-.148 1.558-2.276 1.89-2.891.453-.721-1.684-3.247-.836-2.856.952.335 1.53-1.587 2.513-2.617 1.332-1.205-1.383-3.342.22-2.42 1.805.789 1.358-.737 2.894-2.084 2.088-1.58-.945-3.123 1.246-1.752 2.476 1.171 1.05.196 2.987-1.34 2.64-1.803-.405-2.61 2.157-.918 2.903 1.442.636 1.111 2.779-.458 2.931-1.844.18-1.844 2.87 0 3.05 1.57.152 1.9 2.295.458 2.931-1.692.745-.885 3.308.918 2.902 1.536-.346 2.511 1.59 1.34 2.641-1.37 1.23.172 3.421 1.752 2.476 1.347-.806 2.873.73 2.084 2.087-.922 1.587 1.215 3.19 2.42 1.806 1.03-1.18 2.952-.199 2.617 1.332-.391 1.788 2.135 2.636 2.856.952.615-1.438 2.743-1.105 2.891.453.172 1.824 2.834 1.824 3.006 0 .148-1.558 2.276-1.89 2.891-.453.721 1.684 3.247.836 2.855-.952-.335-1.53 1.588-2.513 2.617-1.332 1.206 1.383 3.343-.22 2.421-1.805-.789-1.358.736-2.894 2.084-2.088 1.58.945 3.123-1.246 1.752-2.476-1.172-1.05-.196-2.987 1.339-2.641 1.804.406 2.611-2.157.919-2.902-1.442-.636-1.112-2.779.457-2.932 1.845-.179 1.845-2.869 0-3.049-1.569-.152-1.899-2.295-.457-2.931 1.692-.746.885-3.308-.919-2.902-1.535.346-2.511-1.59-1.339-2.641 1.371-1.23-.172-3.421-1.752-2.476-1.348.806-2.873-.73-2.084-2.088.922-1.586-1.215-3.188-2.421-1.805-1.029 1.18-2.952.199-2.617-1.332.392-1.789-2.134-2.636-2.855-.952-.615 1.438-2.743 1.105-2.891-.453zM106.5 71c6.904 0 12.5-5.596 12.5-12.5S113.404 46 106.5 46 94 51.596 94 58.5 99.596 71 106.5 71Z" clip-rule="evenodd"/><path fill="#336e9e" d="M129.619 58c-.198-.954-.684-1.845-1.459-2.495a4.47 4.47 0 0 0 .566-1.505H182c5.523 0 10 4.477 10 10v80c0 5.523-4.477 10-10 10h-69c-5.523 0-10-4.477-10-10v-34.511l3.81-4.268.19.232V144a6 6 0 0 0 6 6h69a6 6 0 0 0 6-6V64a6 6 0 0 0-6-6z"/><path fill="#336e9e" d="M180 94h-55.5v-4H180a2 2 0 1 1 0 4zm-55.5 22H152a2 2 0 1 0 0-4h-27.5zm44.5 17a2 2 0 1 1 0 4h-48a2 2 0 1 1 0-4zM96.546 78.784a4.452 4.452 0 0 1-2.046-.022V110L107 96l11.5 14V78.762a4.454 4.454 0 0 1-2.046.022c-.53 1.251-1.613 2.154-2.763 2.539-1.152.385-2.564.312-3.735-.376-1.739 2.034-5.173 2.034-6.912 0-1.171.688-2.583.761-3.735.376-1.15-.385-2.233-1.288-2.764-2.539zM124.023 74a4.613 4.613 0 0 0 1.281-1.217c.542-.767.868-1.76.846-2.783H160a2 2 0 0 1 0 4zM225.5 109.5a2 2 0 0 1-2 2h-7v7a2 2 0 0 1-4 0v-7h-7a2 2 0 0 1 0-4h7v-7a2 2 0 1 1 4 0v7h7a2 2 0 0 1 2 2zM90 151a2 2 0 0 0 0-4h-7v-7a2 2 0 1 0-4 0v7h-7a2 2 0 1 0 0 4h7v7a2 2 0 0 0 4 0v-7zm138-54.5a2.5 2.5 0 1 1 0-5 2.5 2.5 0 0 1 0 5zM94.5 163a2.5 2.5 0 1 1 0-5 2.5 2.5 0 0 1 0 5zm122-80a2.5 2.5 0 1 0 5 0 2.5 2.5 0 0 0-5 0zm-136-4a2.5 2.5 0 1 1 0-5 2.5 2.5 0 0 1 0 5zM72 66.5a2.5 2.5 0 1 0 5 0 2.5 2.5 0 0 0-5 0Z"/></svg>
